X:8853
T:La Bourree Valsee d'Issoudun
N:abc transcription Simon Wascher
N:if you find an error in this transcription please inform simon.wascher@chello.at
M:3/8
L:1/16
K:G
D2|G4F2|G4FG|A2B2G2|A4D2|
A4B2|A4GF|E2F2E2|D4:|
|:B2|B2d2B2|A2c2A2|G2GFGA|B2G2B2|
B2d2B2|A2c2A2|GFE2F2|G4:|


